X:2
T:I Gotta Right To Sing The Blues
C:Harold Arlen
L:1/8
M:C
I:linebreak $
K:Db
"Bbm" fed |:"Eb7" ffed"Bbm" f4- |"Gbo" f4-"Gø" ffff |"Ebm" (3a2 a2 a2"Ab7" _f4- |$
"A7" f6"Ab7" _ff |"Abm" eeee"AbmM" e4- |"Abm" e4"Db7" afdc |"Fø" _c8 |"Bb7" B4- Bfed ||1$
"Eb7" ffed"Bbm" f4- |"Gbo" f4-"Gø" ffff |"Ebm" aaaa"Ab7" _f4- |$"Ebm" f6 AB "Ab7" x4|
"Db6" d4"Ebm" e4 |"Eo" =e4"Bbm" f4 |"Ebm" g4"Eo" =g4 |"Db6" a4-"Bbm" afed :|2$
"Eb7" f2 d2"Bbm" f4- |"Gbo" f4-"Gø" ffff |"GbmM" f2 d2"B7" f4- |$"GbmM" f4-"B7" ffed |
"Db" ffed"G7" f3 =A |"Gb" Bd"Fm"ef"Ebm" g2"Ab7b5" f2 |"Db" d8 |]

